X: 28491
T: Munlochy Bridge
R: strathspey
M: 4/4
K: Gmajor
g|:e>dB>A B<GG>B|d>ed<B B<dd>g|e>dB>A B<GG>f|g>ef<d e2e<g:|
d>eg>a b>ga<b|d>ed<B B<dd>B|d>eg>a b>ga<b|e>ba<g d<ee>g|
d>eg>a b>ga<b|d>ed<B B<dd>g|e>dB>A B<GG>f|g>ef<d e2e<g||

